X:96
T:Waltz
O:No 96 Wm Clarke MS  Feltwell, Norfolk
I:abc2nwc
M:3/4
L:1/8
K:C
(Gc)|e2e2e2|gf e2d2|cB dB GB|cB ce Gc|
e2e2e2|gf e2d2|cB dB GB|c2z2:|
|:Gc|ec Gc eg|fe fe dc|Bd cB AG|cB ce Gc|
ec Gc eg|fe fe dc|Bd cB AG|c2z2:|

